icons/communication/comment-dot-24.svg

<svg width="24" height="24" viewBox="0 0 24 24" fill="none" xmlns="http://www.w3.org/2000/svg">
<path d="M2.75 2C1.7835 2 1 2.7835 1 3.75V16.25C1 17.2165 1.7835 18 2.75 18H5V20.7183C5 21.8076 6.29633 22.3757 7.09724 21.6374L10.9712 18.0662C11.0173 18.0236 11.0778 18 11.1406 18H21.25C22.2165 18 23 17.2165 23 16.25V11.75C23 11.3358 22.6642 11 22.25 11C21.8358 11 21.5 11.3358 21.5 11.75V16.25C21.5 16.3881 21.3881 16.5 21.25 16.5H11.1406C10.7011 16.5 10.2776 16.6654 9.95446 16.9633L6.5 20.1478V17.5C6.5 16.9477 6.05228 16.5 5.5 16.5H2.75C2.61193 16.5 2.5 16.3881 2.5 16.25V3.75C2.5 3.61193 2.61193 3.5 2.75 3.5H13.25C13.6642 3.5 14 3.16421 14 2.75C14 2.33579 13.6642 2 13.25 2H2.75Z" fill="black"/>
<path d="M20 8C21.6569 8 23 6.65685 23 5C23 3.34315 21.6569 2 20 2C18.3431 2 17 3.34315 17 5C17 6.65685 18.3431 8 20 8Z" fill="black"/>
</svg>

<svg xmlns="http://www.w3.org/2000/svg" width="24" height="24"><path d="M2.75 2A1.75 1.75 0 001 3.75v12.5c0 .966.784 1.75 1.75 1.75H5v2.718c0 1.09 1.296 1.658 2.097.92l3.874-3.572a.25.25 0 01.17-.066H21.25A1.75 1.75 0 0023 16.25v-4.5a.75.75 0 00-1.5 0v4.5a.25.25 0 01-.25.25H11.14c-.439 0-.862.165-1.186.463L6.5 20.148V17.5a1 1 0 00-1-1H2.75a.25.25 0 01-.25-.25V3.75a.25.25 0 01.25-.25h10.5a.75.75 0 000-1.5H2.75z"/><path d="M20 8a3 3 0 100-6 3 3 0 000 6z"/></svg>
